rospo-icon-theme-classic-common/22x22/mimetypes/text-x-maxima-out.svg

<svg height="22" width="22" xmlns="http://www.w3.org/2000/svg"><path d="m4 1.5c-.554 0-1 .446-1 1v18c0 .554.446 1 1 1h14c .554 0 1-.446 1-1v-13l-6-6z" opacity=".2"/><path d="m4 1c-.554 0-1 .446-1 1v18c0 .554.446 1 1 1h14c .554 0 1-.446 1-1v-13l-6-6z" fill="#404b8b"/><path d="m19 7.5-6-6v5c0 .554.446 1 1 1z" opacity=".2"/><path d="m19 7-6-6v5c0 .554.446 1 1 1z" fill="#6672ba"/><path d="m4 1c-.554 0-1 .446-1 1v .5c0-.554.446-1 1-1h9v-.5z" fill="#fff" opacity=".1"/><path d="m8.0002 10.50002v.7l.0028.29998 1.496999 2.5-1.499999 2.5v1h5.5v-1.5h-1v .5h-3.5000007l1.4999997-2.5-1.4999997-2.5h3.0000007v.5h1v-1.5h-4.9998999z" opacity=".2"/><path d="m8.0002 10.00002v.7l.0028.29998 1.496999 2.5-1.499999 2.5v1h5.5v-1.5h-1v .5h-3.5000007l1.4999997-2.5-1.4999997-2.5h3.0000007v.5h1v-1.5h-4.9998999z" fill="#f26265"/></svg>

<svg xmlns="http://www.w3.org/2000/svg" width="22" height="22" version="1.1">
 <path style="opacity:0.2" d="m 4,1.5 c -0.554,0 -1,0.446 -1,1 l 0,18 c 0,0.554 0.446,1 1,1 l 14,0 c 0.554,0 1,-0.446 1,-1 l 0,-13 -6,-6 z"/>
 <path style="fill:#404b8b" d="M 4,1 C 3.446,1 3,1.446 3,2 l 0,18 c 0,0.554 0.446,1 1,1 l 14,0 c 0.554,0 1,-0.446 1,-1 L 19,7 13,1 Z"/>
 <path style="opacity:0.2" d="m 19,7.5 -6,-6 0,5 c 0,0.554 0.446,1 1,1 z"/>
 <path style="fill:#6672ba" d="m 19,7 -6,-6 0,5 c 0,0.554 0.446,1 1,1 z"/>
 <path style="opacity:0.1;fill:#ffffff" d="M 4,1 C 3.446,1 3,1.446 3,2 l 0,0.5 c 0,-0.554 0.446,-1 1,-1 l 9,0 L 13,1 4,1 Z"/>
 <path style="opacity:0.2" d="m 8.0002,10.50002 0,0.7 L 8.003,11.5 9.499999,14 8,16.5 l 0,1 5.5,0 0,-1.5 -1,0 0,0.5 -3.5000007,0 L 10.499999,14 8.9999993,11.5 12,11.5 l 0,0.5 1,0 0,-1.5 -4.9998999,0 z"/>
 <path style="fill:#f26265" d="m 8.0002,10.00002 0,0.7 L 8.003,11 9.499999,13.5 8,16 l 0,1 5.5,0 0,-1.5 -1,0 0,0.5 L 8.9999993,16 10.499999,13.5 8.9999993,11 12,11 l 0,0.5 1,0 0,-1.5 -4.9998999,0 z"/>
</svg>
